austria/municipalities/40834.svg

<?xml version="1.0" encoding="UTF-8" standalone="no"?>
<svg
   xmlns:dc="http://purl.org/dc/elements/1.1/"
   xmlns:cc="http://creativecommons.org/ns#"
   xmlns:rdf="http://www.w3.org/1999/02/22-rdf-syntax-ns#"
   xmlns:svg="http://www.w3.org/2000/svg"
   xmlns="http://www.w3.org/2000/svg"
   xmlns:xlink="http://www.w3.org/1999/xlink"
   xmlns:sodipodi="http://sodipodi.sourceforge.net/DTD/sodipodi-0.dtd"
   xmlns:inkscape="http://www.inkscape.org/namespaces/inkscape"
   version="1.0"
   width="100%"
   height="100%"
   viewBox="0 0 195 240"
   id="svg2"
   sodipodi:docname="Coat_of_arms_Wendling.svg"
   inkscape:version="0.92.2 (5c3e80d, 2017-08-06)">
  <metadata
     id="metadata33">
    <rdf:RDF>
      <cc:Work
         rdf:about="">
        <dc:format>image/svg+xml</dc:format>
        <dc:type
           rdf:resource="http://purl.org/dc/dcmitype/StillImage" />
      </cc:Work>
    </rdf:RDF>
  </metadata>
  <sodipodi:namedview
     id="namedview578225"
     pagecolor="#ffffff"
     bordercolor="#666666"
     borderopacity="1.0"
     inkscape:pageshadow="2"
     inkscape:pageopacity="0.0"
     inkscape:pagecheckerboard="0"
     showgrid="false"
     inkscape:zoom="3.0641294"
     inkscape:cx="186.64297"
     inkscape:cy="154.3178"
     inkscape:window-width="1920"
     inkscape:window-height="1017"
     inkscape:window-x="-8"
     inkscape:window-y="-8"
     inkscape:window-maximized="1"
     inkscape:current-layer="g3298" />
  <defs
     id="defs4" />
  <g
     transform="matrix(0.9683118,0,0,0.9683118,-120.51357,-419.39987)"
     id="g3298">
    <path
       d="M 225.21893,677.78158 C 278.75692,676.67165 321.91358,630.77604 321.91358,574.38873 L 322.07718,436.32209 L 128.21904,436.32209 L 128.38264,574.38873 C 128.38264,630.77602 171.68095,676.67165 225.21893,677.78158 z"
       id="path3357"
       style="fill:#02739f;fill-opacity:1;fill-rule:nonzero;stroke:#000000;stroke-width:4;stroke-linecap:round;stroke-linejoin:miter;stroke-miterlimit:4;stroke-dasharray:none;stroke-dashoffset:4.3;stroke-opacity:1" />
    <g
       transform="translate(1.8739357,0)"
       id="g2417">
      <path
         d="M 200.39427,566.79597 C 196.1983,566.79597 192.76928,570.225 192.76927,574.42097 C 192.76927,578.61694 196.51765,580.40913 200.39427,582.01472 C 206.30347,584.46219 212.58245,585.18042 207.98802,574.42097 C 206.34023,570.56209 204.59024,566.79595 200.39427,566.79597 z M 247.30052,567.04597 C 243.10455,567.04597 241.31237,570.7631 239.70677,574.63972 C 237.2593,580.54892 236.54108,586.82794 247.30052,582.23347 C 251.1594,580.58568 254.92552,578.83569 254.92552,574.63972 C 254.92552,570.44375 251.4965,567.04595 247.30052,567.04597 z M 191.6023,609.11031 C 190.56473,609.0976 189.3313,609.18492 187.88355,609.39156 C 183.72968,609.98445 179.65703,610.71355 178.57105,614.76656 C 177.48505,618.81955 179.89304,622.99307 183.94605,624.07906 C 187.99904,625.16506 190.70431,622.03303 193.25855,618.70406 C 196.66535,614.26397 198.86527,609.1993 191.6023,609.11031 z M 255.19605,611.61031 C 250.45223,611.65841 247.42141,613.66357 253.2898,621.14156 C 255.88019,624.44247 258.54931,627.60258 262.6023,626.51656 C 266.65529,625.43056 269.0633,621.25706 267.9773,617.20406 C 266.8913,613.15107 262.8249,612.37662 258.6648,611.82906 C 257.47581,611.67256 256.29078,611.59921 255.19605,611.61031 z M 223.14427,629.88972 C 221.58307,630.07875 219.85275,631.88537 218.08177,636.29597 C 216.5183,640.18977 215.11477,644.07894 218.08177,647.04597 C 221.04877,650.01297 225.86478,650.01294 228.83177,647.04597 C 231.79876,644.07897 230.43762,640.17246 228.83177,636.29597 C 227.37838,632.78747 225.42602,629.61344 223.14427,629.88972 z"
         id="path3222"
         style="fill:#f5c801;fill-opacity:1;fill-rule:nonzero;stroke:#000000;stroke-width:1.60000002;stroke-linecap:round;stroke-linejoin:miter;stroke-miterlimit:4;stroke-dasharray:none;stroke-dashoffset:4.3;stroke-opacity:1" />
      <g
         transform="translate(-0.40917,-0.2613768)"
         id="g3212"
         style="stroke-width:1.60000002;stroke-miterlimit:4;stroke-dasharray:none">
        <path
           d="M 249.37886,579.74247 C 251.90289,579.5674 254.28409,580.51117 256.67976,582.527 C 260.20601,585.49412 261.40345,588.19376 263.43733,597.43441 C 265.02314,604.63924 263.9673,608.46683 259.22658,612.61349 C 255.0795,616.2409 252.185,616.1213 240.95736,611.76455 C 232.37252,608.43334 226.81433,609.12354 226.33944,606.63197 C 226.03693,605.0448 225.4815,602.71603 225.08301,601.47041 C 224.52463,599.72498 229.89908,595.90396 234.70915,590.26935 C 240.53302,583.44716 245.17215,580.03425 249.37886,579.74247 z"
           id="path3192"
           style="fill:#ffffff;stroke:#000000;stroke-width:1.60000002;stroke-miterlimit:4;stroke-dasharray:none;fill-opacity:1" />
        <path
           d="M 206.35605,573.48545 C 206.84022,571.00212 208.36813,568.94632 210.93531,567.15402 C 214.71399,564.51587 217.63157,564.05795 227.08375,564.48503 C 234.45352,564.818 237.87742,566.82851 240.6558,572.48093 C 243.08626,577.42555 242.22159,580.19046 235.10736,589.90792 C 229.66774,597.33806 228.39386,601.85547 225.86427,601.66931 C 224.25289,601.55073 221.85972,601.4845 220.5534,601.54702 C 218.72293,601.63463 216.92512,596.48438 212.72744,590.37986 C 207.64504,582.98872 205.54911,577.62434 206.35605,573.48545 z"
           id="path3200"
           style="fill:#ffffff;stroke:#000000;stroke-width:1.60000002;stroke-miterlimit:4;stroke-dasharray:none;fill-opacity:1" />
        <path
           d="M 219.27851,641.48181 C 217.46157,643.24253 215.03268,644.05574 211.90173,644.05863 C 207.29324,644.06291 204.63768,642.77066 197.12662,637.01651 C 191.27032,632.53008 189.61051,628.9231 190.56238,622.69709 C 191.39506,617.25071 193.68519,615.47652 205.07757,611.57081 C 213.78836,608.5844 217.73666,605.00036 219.70567,606.59924 C 220.95996,607.61775 222.88562,609.04025 223.99316,609.73576 C 225.54509,610.71036 223.75524,616.56969 223.7094,623.97802 C 223.65388,632.94778 222.30675,638.54732 219.27851,641.48181 z"
           id="path3204"
           style="fill:#ffffff;stroke:#000000;stroke-width:1.60000002;stroke-miterlimit:4;stroke-dasharray:none;fill-opacity:1" />
        <path
           d="M 187.86119,611.99087 C 185.66059,610.74237 184.19715,608.64019 183.31392,605.63641 C 182.01384,601.2151 182.50715,598.3033 185.91688,589.4772 C 188.5754,582.59558 191.57006,579.98843 197.8125,579.15105 C 203.27324,578.41854 205.61987,580.11731 212.57165,589.95162 C 217.88713,597.47107 222.06533,600.79204 221.08469,603.13122 C 220.46,604.62133 219.63642,606.8693 219.28044,608.12772 C 218.78159,609.89109 216.27692,609.78131 209.15465,611.82064 C 200.53125,614.28979 191.52886,614.07168 187.86119,611.99087 z"
           id="path3202"
           style="fill:#ffffff;stroke:#000000;stroke-width:1.60000002;stroke-miterlimit:4;stroke-dasharray:none;fill-opacity:1" />
        <path
           d="M 256.52602,620.95452 C 257.65558,623.21847 257.69705,625.77953 256.75397,628.76507 C 255.36585,633.15954 253.33176,635.30066 245.57742,640.7225 C 239.53145,644.94987 235.59157,645.44248 229.94401,642.65425 C 225.00365,640.21517 224.00417,637.49607 223.72249,625.45606 C 223.50709,616.25008 221.44585,611.31799 223.56485,609.92398 C 224.91469,609.03597 226.85246,607.63001 227.85005,606.78433 C 229.24793,605.59933 234.1302,609.16117 241.17856,611.44287 C 249.71248,614.20549 254.64343,617.18127 256.52602,620.95452 z"
           id="path3206"
           style="fill:#ffffff;stroke:#000000;stroke-width:1.60000002;stroke-miterlimit:4;stroke-dasharray:none;fill-opacity:1" />
        <path
           d="M 230.25,604.75 A 6.5,6.5 0 1 1 217.25,604.75 A 6.5,6.5 0 1 1 230.25,604.75 z"
           transform="translate(0.25,1.25)"
           id="path3210"
           style="opacity:1;fill:#f5c801;fill-opacity:1;fill-rule:nonzero;stroke:#000000;stroke-width:1.60000002;stroke-linecap:round;stroke-linejoin:miter;stroke-miterlimit:4;stroke-dasharray:none;stroke-dashoffset:4.3;stroke-opacity:1" />
      </g>
      <path
         d="M 187.02974,603.80644 C 186.8769,597.25987 188.6113,591.02784 194.10081,585.42166"
         id="path3269"
         style="fill:none;fill-rule:evenodd;stroke:#000000;stroke-width:1.60000002;stroke-linecap:butt;stroke-linejoin:miter;stroke-miterlimit:4;stroke-dasharray:none;stroke-opacity:1" />
      <path
         d="M 213.40429,570.17224 C 219.41624,567.57658 225.84401,566.84846 233.09915,569.83626"
         id="path2409"
         style="fill:none;fill-rule:evenodd;stroke:#000000;stroke-width:1.60000002;stroke-linecap:butt;stroke-linejoin:miter;stroke-miterlimit:4;stroke-dasharray:none;stroke-opacity:1" />
      <path
         d="M 252.91418,585.65782 C 257.17682,590.62881 259.77942,596.55104 259.07895,604.36598"
         id="path2411"
         style="fill:none;fill-rule:evenodd;stroke:#000000;stroke-width:1.60000002;stroke-linecap:butt;stroke-linejoin:miter;stroke-miterlimit:4;stroke-dasharray:none;stroke-opacity:1" />
      <path
         d="M 251.27362,625.59808 C 248.69913,631.61913 244.53755,636.57165 237.21805,639.39812"
         id="path2413"
         style="fill:none;fill-rule:evenodd;stroke:#000000;stroke-width:1.60000002;stroke-linecap:butt;stroke-linejoin:miter;stroke-miterlimit:4;stroke-dasharray:none;stroke-opacity:1" />
      <path
         d="M 211.21529,639.5398 C 204.85223,637.99306 199.28145,634.70479 195.28709,627.95134"
         id="path2415"
         style="fill:none;fill-rule:evenodd;stroke:#000000;stroke-width:1.60000002;stroke-linecap:butt;stroke-linejoin:miter;stroke-miterlimit:4;stroke-dasharray:none;stroke-opacity:1" />
    </g>
    <g
       id="g3284">
      <path
         d="M 260.79104,474.87614 L 149.24308,554.51206 L 145.78759,566.02551 L 157.90001,566.57544 L 269.48107,486.54641 L 260.79104,474.87614 z"
         id="path2432"
         style="fill:#f5c801;fill-opacity:1;fill-rule:evenodd;stroke:#000000;stroke-width:1.39999998;stroke-linecap:butt;stroke-linejoin:miter;stroke-miterlimit:4;stroke-dasharray:none;stroke-opacity:1" />
      <path
         d="M 261.03818,475.27284 L 257.52064,486.47454 L 269.15124,486.23396 L 261.03818,475.27284 z"
         id="path2436"
         style="fill:#f5c801;fill-opacity:1;fill-rule:evenodd;stroke:#000000;stroke-width:1.39999998;stroke-linecap:butt;stroke-linejoin:miter;stroke-miterlimit:4;stroke-dasharray:none;stroke-opacity:1" />
      <path
         d="M 146.107,565.63119 L 257.82245,486.27812"
         id="path2438"
         style="fill:#ecc50e;fill-opacity:1;fill-rule:evenodd;stroke:#000000;stroke-width:1.39999998;stroke-linecap:butt;stroke-linejoin:miter;stroke-miterlimit:4;stroke-dasharray:none;stroke-opacity:1" />
      <path
         d="M 312.5,459.375 A 6.375,6.375 0 1 1 299.75,459.375 A 6.375,6.375 0 1 1 312.5,459.375 z"
         transform="matrix(7.5937828e-2,-0.9971126,0.9971126,7.5937828e-2,-183.5617,727.60058)"
         id="path2440"
         style="fill:#f5c801;fill-opacity:1;fill-rule:nonzero;stroke:#000000;stroke-width:1.79999995;stroke-linecap:round;stroke-linejoin:miter;stroke-miterlimit:4;stroke-dasharray:none;stroke-dashoffset:4.3;stroke-opacity:1" />
      <path
         d="M 267.44361,471.08934 L 290.94358,456.00098 L 296.74826,464.10177 L 274.9815,481.55507 L 267.44361,471.08934 z"
         id="rect2444"
         style="fill:#f5c801;fill-opacity:1;fill-rule:nonzero;stroke:#000000;stroke-width:1.57060564;stroke-linecap:round;stroke-linejoin:miter;stroke-miterlimit:4;stroke-dashoffset:4.3;stroke-opacity:1" />
      <path
         d="M 259.77734,460.91884 C 268.72016,470.18611 276.14927,480.53806 282.11163,491.94101 C 282.76602,492.84996 282.56109,494.10852 281.65214,494.76292 L 279.42024,496.36976 C 278.51129,497.02416 277.25273,496.81923 276.59833,495.91028 L 254.26405,464.88811 C 253.60965,463.97916 253.81458,462.72059 254.72353,462.06619 L 256.95542,460.45935 C 257.86437,459.80495 259.12295,460.00989 259.77734,460.91884 z"
         id="rect2442"
         style="fill:#f5c801;fill-opacity:1;fill-rule:nonzero;stroke:#000000;stroke-width:1.80000007;stroke-linecap:round;stroke-linejoin:miter;stroke-miterlimit:4;stroke-dashoffset:4.3;stroke-opacity:1" />
      <path
         d="M 272.04966,468.60596 C 275.26084,471.07209 277.52551,474.21645 278.82077,478.05544"
         id="path2457"
         style="fill:none;fill-rule:evenodd;stroke:#000000;stroke-width:1.60000002;stroke-linecap:butt;stroke-linejoin:miter;stroke-miterlimit:4;stroke-dasharray:none;stroke-opacity:1" />
      <path
         d="M 276.79739,465.40275 C 280.05969,467.77159 282.26007,470.75819 283.27727,474.4458"
         id="path2459"
         style="fill:none;fill-rule:evenodd;stroke:#000000;stroke-width:1.60000002;stroke-linecap:butt;stroke-linejoin:miter;stroke-miterlimit:4;stroke-dasharray:none;stroke-opacity:1" />
      <path
         d="M 281.46607,462.08922 C 285.12449,464.68376 287.08937,467.5935 287.76393,470.87825"
         id="path2461"
         style="fill:none;fill-rule:evenodd;stroke:#000000;stroke-width:1.60000002;stroke-linecap:butt;stroke-linejoin:miter;stroke-miterlimit:4;stroke-dasharray:none;stroke-opacity:1" />
      <path
         d="M 286.3381,459.05946 C 288.42015,461.18933 290.50739,463.2877 292.27192,467.34046"
         id="path2463"
         style="fill:none;fill-rule:evenodd;stroke:#000000;stroke-width:1.60000002;stroke-linecap:butt;stroke-linejoin:miter;stroke-miterlimit:4;stroke-dasharray:none;stroke-opacity:1" />
    </g>
    <use
       transform="matrix(-1,0,0,1,450.09623,0)"
       id="use3296"
       x="0"
       y="0"
       width="210"
       height="240"
       xlink:href="#g3284"
       style="fill:#f5c801;fill-opacity:1" />
  </g>
</svg>

<svg xmlns="http://www.w3.org/2000/svg" xmlns:xlink="http://www.w3.org/1999/xlink" version="1.0" viewBox="0 0 195 240"><g transform="translate(-120.514 -419.4) scale(.96831)"><path d="M225.219 677.782c53.538-1.11 96.695-47.006 96.695-103.393l.163-138.067H128.22l.164 138.067c0 56.387 43.298 102.283 96.836 103.393z" style="fill:#02739f;fill-opacity:1;fill-rule:nonzero;stroke:#000;stroke-width:4;stroke-linecap:round;stroke-linejoin:miter;stroke-miterlimit:4;stroke-dasharray:none;stroke-dashoffset:4.3;stroke-opacity:1"/><path d="M200.394 566.796c-4.196 0-7.625 3.429-7.625 7.625s3.749 5.988 7.625 7.594c5.91 2.447 12.188 3.165 7.594-7.594-1.648-3.859-3.398-7.625-7.594-7.625zm46.907.25c-4.196 0-5.989 3.717-7.594 7.594-2.448 5.909-3.166 12.188 7.594 7.593 3.858-1.647 7.625-3.397 7.625-7.593s-3.43-7.594-7.625-7.594zm-55.699 42.064c-1.037-.012-2.27.075-3.718.282-4.154.592-8.227 1.322-9.313 5.375a7.607 7.607 0 0 0 5.375 9.312c4.053 1.086 6.758-2.046 9.313-5.375 3.406-4.44 5.606-9.505-1.657-9.594zm63.594 2.5c-4.744.048-7.775 2.054-1.906 9.532 2.59 3.3 5.26 6.46 9.312 5.375a7.607 7.607 0 0 0 5.375-9.313c-1.086-4.053-5.152-4.827-9.312-5.375a24.976 24.976 0 0 0-3.469-.219zm-32.052 18.28c-1.56.189-3.291 1.995-5.062 6.406-1.564 3.894-2.967 7.783 0 10.75a7.604 7.604 0 0 0 10.75 0c2.967-2.967 1.606-6.874 0-10.75-1.454-3.509-3.406-6.683-5.688-6.406z" style="fill:#f5c801;fill-opacity:1;fill-rule:nonzero;stroke:#000;stroke-width:1.60000002;stroke-linecap:round;stroke-linejoin:miter;stroke-miterlimit:4;stroke-dasharray:none;stroke-dashoffset:4.3;stroke-opacity:1" transform="translate(1.874)"/><g style="stroke-width:1.60000002;stroke-miterlimit:4;stroke-dasharray:none"><path d="M249.379 579.742c2.524-.175 4.905.77 7.3 2.785 3.527 2.967 4.724 5.667 6.758 14.907 1.586 7.205.53 11.033-4.21 15.18-4.147 3.627-7.042 3.507-18.27-.85-8.584-3.33-14.143-2.64-14.618-5.132-.302-1.587-.857-3.916-1.256-5.162-.558-1.745 4.816-5.566 9.626-11.2 5.824-6.823 10.463-10.236 14.67-10.528z" style="fill:#fff;stroke:#000;stroke-width:1.60000002;stroke-miterlimit:4;stroke-dasharray:none;fill-opacity:1" transform="translate(1.465 -.261)"/><path d="M206.356 573.485c.484-2.483 2.012-4.539 4.58-6.331 3.778-2.638 6.696-3.096 16.148-2.669 7.37.333 10.793 2.344 13.572 7.996 2.43 4.945 1.566 7.71-5.549 17.427-5.44 7.43-6.713 11.947-9.243 11.761-1.611-.118-4.004-.184-5.31-.122-1.831.088-3.629-5.063-7.827-11.167-5.082-7.391-7.178-12.756-6.37-16.895zM219.279 641.482c-1.817 1.76-4.246 2.574-7.377 2.577-4.609.004-7.264-1.288-14.775-7.042-5.857-4.487-7.516-8.094-6.565-14.32.833-5.446 3.123-7.22 14.516-11.126 8.71-2.987 12.659-6.57 14.628-4.972 1.254 1.019 3.18 2.441 4.287 3.137 1.552.974-.238 6.834-.284 14.242-.055 8.97-1.402 14.57-4.43 17.504z" style="fill:#fff;stroke:#000;stroke-width:1.60000002;stroke-miterlimit:4;stroke-dasharray:none;fill-opacity:1" transform="translate(1.465 -.261)"/><path d="M187.861 611.99c-2.2-1.248-3.664-3.35-4.547-6.354-1.3-4.42-.807-7.333 2.603-16.159 2.658-6.881 5.653-9.489 11.895-10.326 5.461-.732 7.808.966 14.76 10.8 5.315 7.52 9.493 10.841 8.513 13.18-.625 1.49-1.449 3.738-1.805 4.997-.498 1.763-3.003 1.653-10.125 3.693-8.624 2.469-17.626 2.25-21.294.17zM256.526 620.955c1.13 2.263 1.171 4.825.228 7.81-1.388 4.395-3.422 6.536-11.177 11.957-6.046 4.228-9.985 4.72-15.633 1.932-4.94-2.439-5.94-5.158-6.222-17.198-.215-9.206-2.276-14.138-.157-15.532 1.35-.888 3.287-2.294 4.285-3.14 1.398-1.185 6.28 2.377 13.329 4.659 8.533 2.762 13.464 5.738 15.347 9.512z" style="fill:#fff;stroke:#000;stroke-width:1.60000002;stroke-miterlimit:4;stroke-dasharray:none;fill-opacity:1" transform="translate(1.465 -.261)"/><path d="M230.25 604.75a6.5 6.5 0 1 1-13 0 6.5 6.5 0 1 1 13 0z" transform="translate(1.715 .989)" style="opacity:1;fill:#f5c801;fill-opacity:1;fill-rule:nonzero;stroke:#000;stroke-width:1.60000002;stroke-linecap:round;stroke-linejoin:miter;stroke-miterlimit:4;stroke-dasharray:none;stroke-dashoffset:4.3;stroke-opacity:1"/></g><path d="M187.03 603.806c-.153-6.546 1.581-12.778 7.07-18.384M213.404 570.172c6.012-2.595 12.44-3.324 19.695-.336M252.914 585.658c4.263 4.97 6.865 10.893 6.165 18.708M251.274 625.598c-2.575 6.021-6.736 10.974-14.056 13.8M211.215 639.54c-6.363-1.547-11.934-4.835-15.928-11.589" style="fill:none;fill-rule:evenodd;stroke:#000;stroke-width:1.60000002;stroke-linecap:butt;stroke-linejoin:miter;stroke-miterlimit:4;stroke-dasharray:none;stroke-opacity:1" transform="translate(1.874)"/><g id="a"><path d="m260.791 474.876-111.548 79.636-3.455 11.514 12.112.55 111.581-80.03-8.69-11.67z" style="fill:#f5c801;fill-opacity:1;fill-rule:evenodd;stroke:#000;stroke-width:1.39999998;stroke-linecap:butt;stroke-linejoin:miter;stroke-miterlimit:4;stroke-dasharray:none;stroke-opacity:1"/><path d="m261.038 475.273-3.517 11.202 11.63-.241-8.113-10.961z" style="fill:#f5c801;fill-opacity:1;fill-rule:evenodd;stroke:#000;stroke-width:1.39999998;stroke-linecap:butt;stroke-linejoin:miter;stroke-miterlimit:4;stroke-dasharray:none;stroke-opacity:1"/><path d="m146.107 565.631 111.715-79.353" style="fill:#ecc50e;fill-opacity:1;fill-rule:evenodd;stroke:#000;stroke-width:1.39999998;stroke-linecap:butt;stroke-linejoin:miter;stroke-miterlimit:4;stroke-dasharray:none;stroke-opacity:1"/><path d="M312.5 459.375a6.375 6.375 0 1 1-12.75 0 6.375 6.375 0 1 1 12.75 0z" transform="rotate(-85.645 300.78 462.837)" style="fill:#f5c801;fill-opacity:1;fill-rule:nonzero;stroke:#000;stroke-width:1.79999995;stroke-linecap:round;stroke-linejoin:miter;stroke-miterlimit:4;stroke-dasharray:none;stroke-dashoffset:4.3;stroke-opacity:1"/><path d="m267.444 471.09 23.5-15.089 5.804 8.1-21.767 17.454-7.537-10.466z" style="fill:#f5c801;fill-opacity:1;fill-rule:nonzero;stroke:#000;stroke-width:1.57060564;stroke-linecap:round;stroke-linejoin:miter;stroke-miterlimit:4;stroke-dashoffset:4.3;stroke-opacity:1"/><path d="M259.777 460.919c8.943 9.267 16.372 19.62 22.335 31.022.654.909.45 2.168-.46 2.822l-2.232 1.607a2.017 2.017 0 0 1-2.822-.46l-22.334-31.022a2.017 2.017 0 0 1 .46-2.822l2.231-1.607a2.017 2.017 0 0 1 2.822.46z" style="fill:#f5c801;fill-opacity:1;fill-rule:nonzero;stroke:#000;stroke-width:1.80000007;stroke-linecap:round;stroke-linejoin:miter;stroke-miterlimit:4;stroke-dashoffset:4.3;stroke-opacity:1"/><path d="M272.05 468.606c3.21 2.466 5.476 5.61 6.77 9.45M276.797 465.403c3.263 2.369 5.463 5.355 6.48 9.043M281.466 462.09c3.658 2.594 5.623 5.504 6.298 8.788M286.338 459.06c2.082 2.13 4.17 4.228 5.934 8.28" style="fill:none;fill-rule:evenodd;stroke:#000;stroke-width:1.60000002;stroke-linecap:butt;stroke-linejoin:miter;stroke-miterlimit:4;stroke-dasharray:none;stroke-opacity:1"/></g><use transform="matrix(-1 0 0 1 450.096 0)" width="210" height="240" xlink:href="#a" style="fill:#f5c801;fill-opacity:1"/></g></svg>
